X:54
T:Milliner's Daughter
R:reel
M:4/4
L:1/8
K:Gmaj
|: G2BG DGBG |A2eg fdcA | G2BG DGBd | cAFG AGGF |
G2BG DGBG | A2eg fdcA | G2BG DGBd | cAFG AGG2 :|
|: dg3 dg3 | dff2 dff2 | dg3 dg3 | d^cde fdBA |
dgg2 bgag | fdde f3g | afge fde^c | d2 (3efg fdBA :|
